packages/components/icon/src/assets/icons/addfield.svg

<svg width="24" height="24" viewBox="0 0 24 24" fill="none" xmlns="http://www.w3.org/2000/svg">
<path fill-rule="evenodd" clip-rule="evenodd" d="M7.70755 5.74964L6.90204 4.56535C6.82784 4.45645 6.85583 4.30762 6.96669 4.23625C7.86114 3.6607 8.86342 3.23788 9.93642 3.00532C10.0653 2.97733 10.1902 3.06281 10.215 3.1921L10.4831 4.59941C10.5076 4.72893 10.4226 4.85345 10.2939 4.8823C9.48214 5.06432 8.72284 5.38409 8.0412 5.81581C7.9297 5.88653 7.78152 5.85855 7.70755 5.74964ZM13.4407 4.8823C13.312 4.85345 13.227 4.72893 13.2517 4.59941L13.5199 3.1921C13.5444 3.06281 13.6696 2.97733 13.7982 3.00532C14.8712 3.23788 15.8735 3.6607 16.7679 4.23625C16.8788 4.30762 16.9068 4.45645 16.8328 4.56535L16.0275 5.74964C15.9533 5.85855 15.8051 5.88653 15.6939 5.81581C15.0122 5.38409 14.2525 5.06432 13.4407 4.8823V4.8823ZM16.8788 10.4356C17.2741 10.4356 17.5947 10.756 17.5947 11.1515V12.5833C17.5947 12.9786 17.2741 13.2992 16.8788 13.2992H13.2992V16.8788C13.2992 17.2741 12.9786 17.5962 12.5833 17.5962H11.1515C10.756 17.5962 10.4356 17.2741 10.4356 16.8788V13.2992H6.85605C6.46056 13.2992 6.14014 12.9786 6.14014 12.5833V11.1515C6.14014 10.756 6.46056 10.4356 6.85605 10.4356H10.4356V6.85605C10.4356 6.46056 10.756 6.14014 11.1515 6.14014H12.5833C12.9786 6.14014 13.2992 6.46056 13.2992 6.85605V10.4356H16.8788ZM5.74964 7.70733L5.74964 7.70755C5.85855 7.78153 5.88653 7.9297 5.81602 8.04121C5.38409 8.72284 5.06432 9.48214 4.8823 10.2939C4.85345 10.4226 4.72892 10.5076 4.59963 10.4829L3.19232 10.215C3.06281 10.1902 2.97733 10.0653 3.00532 9.93642C3.23809 8.86342 3.6607 7.86114 4.23625 6.96669C4.30762 6.85583 4.45644 6.82785 4.56535 6.90204L5.74964 7.70733ZM18.8525 10.2942V10.2939C18.6705 9.48214 18.3508 8.72284 17.9188 8.04121C17.8483 7.9297 17.8761 7.78153 17.9852 7.70755L19.1695 6.90226C19.2784 6.82806 19.4272 6.85605 19.4984 6.96691C20.0741 7.86136 20.4968 8.86364 20.7295 9.93663C20.7573 10.0655 20.672 10.1905 20.5425 10.2152L19.1352 10.4831C19.0057 10.5078 18.8814 10.4228 18.8525 10.2942ZM4.8823 13.4407C5.06432 14.2525 5.38409 15.0122 5.81602 15.6939C5.88653 15.8051 5.85855 15.9533 5.74964 16.0275L4.56535 16.8328C4.45644 16.9068 4.30762 16.8788 4.23625 16.7679C3.6607 15.8735 3.23809 14.8712 3.00532 13.7982C2.97733 13.6696 3.06281 13.5444 3.19232 13.5197L4.59963 13.2517C4.72893 13.227 4.85345 13.312 4.8823 13.4407H4.8823ZM20.5425 13.5197C20.672 13.5444 20.7573 13.6693 20.7295 13.7982C20.4967 14.8712 20.0741 15.8735 19.4986 16.7679C19.4272 16.8788 19.2784 16.9068 19.1695 16.8328L17.9852 16.0275C17.8761 15.9533 17.8483 15.8051 17.9188 15.6939C18.3508 15.0122 18.6705 14.2525 18.8525 13.4407C18.8814 13.312 19.0057 13.227 19.1352 13.2517L20.5425 13.5197H20.5425ZM10.2939 18.8545H10.2942C10.4228 18.8762 10.5078 19.0064 10.4833 19.1365L10.2152 20.5466C10.1905 20.6768 10.0655 20.7636 9.93663 20.7202C8.86363 20.5033 7.86136 20.0694 6.9669 19.5053C6.85626 19.4185 6.82806 19.2884 6.90226 19.1799L7.70755 17.9867C7.78152 17.8783 7.9297 17.8566 8.0412 17.9216C8.72284 18.3555 9.48214 18.6809 10.2939 18.8545ZM16.0277 17.9867L16.833 19.1799C16.907 19.2884 16.879 19.4185 16.7682 19.5053C15.8737 20.0694 14.8716 20.5033 13.7984 20.7202C13.6698 20.7636 13.5446 20.6768 13.5201 20.5466L13.252 19.1365C13.2272 19.0064 13.3125 18.8762 13.4409 18.8545C14.2527 18.6809 15.0124 18.3555 15.6941 17.9216C15.8054 17.8566 15.9535 17.8783 16.0277 17.9867Z" fill="currentColor"/>
</svg>

<svg viewBox="0 0 24 24" fill="none" xmlns="http://www.w3.org/2000/svg"><path fill-rule="evenodd" clip-rule="evenodd" d="m7.708 5.75-.806-1.185a.234.234 0 0 1 .065-.329 9.014 9.014 0 0 1 2.97-1.23.234.234 0 0 1 .278.186l.268 1.407a.245.245 0 0 1-.19.283 7.118 7.118 0 0 0-2.252.934.245.245 0 0 1-.333-.066Zm5.733-.868a.245.245 0 0 1-.19-.283l.269-1.407a.234.234 0 0 1 .278-.187 9.014 9.014 0 0 1 2.97 1.231c.11.072.139.22.065.33l-.805 1.184a.245.245 0 0 1-.334.066 7.121 7.121 0 0 0-2.253-.934Zm3.438 5.554c.395 0 .716.32.716.716v1.431c0 .396-.32.716-.716.716h-3.58v3.58c0 .395-.32.717-.716.717h-1.431a.717.717 0 0 1-.716-.717v-3.58h-3.58a.716.716 0 0 1-.716-.716v-1.431c0-.396.32-.716.716-.716h3.58v-3.58c0-.395.32-.716.716-.716h1.431c.396 0 .716.32.716.716v3.58h3.58ZM5.749 7.707a.245.245 0 0 1 .067.334 7.114 7.114 0 0 0-.934 2.253.245.245 0 0 1-.282.189l-1.408-.268a.234.234 0 0 1-.187-.279 9.019 9.019 0 0 1 1.231-2.97.234.234 0 0 1 .33-.064l1.184.805Zm13.104 2.587a7.112 7.112 0 0 0-.934-2.253.245.245 0 0 1 .066-.333l1.184-.806a.234.234 0 0 1 .33.065 9.014 9.014 0 0 1 1.23 2.97.234.234 0 0 1-.186.278l-1.408.268a.245.245 0 0 1-.283-.189Zm-13.97 3.147a7.1 7.1 0 0 0 .933 2.253c.07.111.043.26-.066.333l-1.185.806a.234.234 0 0 1-.329-.065 9.018 9.018 0 0 1-1.23-2.97.234.234 0 0 1 .186-.278l1.408-.268a.244.244 0 0 1 .282.189Zm15.66.079c.129.024.214.15.187.278a9.02 9.02 0 0 1-1.231 2.97.234.234 0 0 1-.33.065l-1.184-.805a.245.245 0 0 1-.066-.334 7.115 7.115 0 0 0 .933-2.253.245.245 0 0 1 .283-.19l1.407.269Zm-10.25 5.335h.001a.24.24 0 0 1 .19.282l-.269 1.41c-.024.13-.15.217-.278.173a8.895 8.895 0 0 1-2.97-1.215c-.11-.086-.139-.217-.065-.325l.806-1.193c.074-.109.222-.13.333-.065a6.88 6.88 0 0 0 2.253.933Zm5.735-.868.805 1.193c.074.108.046.239-.065.325a8.894 8.894 0 0 1-2.97 1.215c-.128.044-.253-.043-.278-.173l-.268-1.41a.24.24 0 0 1 .189-.282 6.884 6.884 0 0 0 2.253-.933c.111-.065.26-.044.334.065Z" fill="currentColor"/></svg>
